epam-assets/icon-sources/18/table-table_search.svg

<svg width="18" height="18" viewBox="0 0 18 18" fill="none" xmlns="http://www.w3.org/2000/svg">
<g id="18/table-table_search">
<path id="icon" fill-rule="evenodd" clip-rule="evenodd" d="M13.725 13.4175C14.715 11.8425 14.25 9.75 12.6675 8.76C11.0925 7.77 9 8.25 8.01 9.8175C7.02 11.4 7.5 13.5 9.0675 14.475C10.17 15.165 11.565 15.165 12.6675 14.475L15 16.7925L16.0425 15.75L13.725 13.4175ZM12.225 12.9525C11.49 13.6875 10.305 13.68 9.57 12.9525C8.8425 12.2175 8.8425 11.0325 9.5775 10.2975C10.305 9.57 11.49 9.57 12.225 10.2975C12.945 11.04 12.9375 12.225 12.2025 12.9525H12.225ZM13.5 3H3C2.17157 3 1.5 3.67157 1.5 4.5V13.5C1.5 14.3284 2.17157 15 3 15H7.3575C6.9375 14.565 6.6 14.055 6.375 13.5H3V10.5H6.135C6.255 9.9675 6.4575 9.4575 6.75 9H3V6H7.5V8.1075C7.935 7.6875 8.445 7.35 9 7.125V6H13.5V7.5C13.8 7.6875 14.0775 7.9125 14.325 8.16C14.58 8.415 14.805 8.6925 15 9V4.5C15 3.67157 14.3284 3 13.5 3Z" fill="#6C6F80"/>
</g>
</svg>

<svg xmlns="http://www.w3.org/2000/svg" width="18" height="18" fill="none" viewBox="0 0 18 18">
  <path fill="#6C6F80" fill-rule="evenodd" d="M13.725 13.418c.99-1.575.525-3.668-1.057-4.658A3.39 3.39 0 0 0 8.01 9.818C7.02 11.4 7.5 13.5 9.068 14.475a3.39 3.39 0 0 0 3.6 0L15 16.793l1.043-1.043-2.318-2.332Zm-1.5-.465a1.88 1.88 0 0 1-2.655 0 1.88 1.88 0 0 1 .008-2.655 1.879 1.879 0 0 1 2.647 0c.72.742.713 1.927-.022 2.655h.022ZM13.5 3H3a1.5 1.5 0 0 0-1.5 1.5v9A1.5 1.5 0 0 0 3 15h4.357a4.726 4.726 0 0 1-.982-1.5H3v-3h3.135c.12-.533.322-1.043.615-1.5H3V6h4.5v2.107c.435-.42.945-.757 1.5-.982V6h4.5v1.5A4.874 4.874 0 0 1 15 9V4.5A1.5 1.5 0 0 0 13.5 3Z" clip-rule="evenodd"/>
</svg>
